X:1
T:F# minor Ebenezer Child, 1804
T:Isaac Watts, 1719 (Psalm 146)   88. 88. (L. M.)  
T:Hampton
T:Transcribed from The Sacred Musician, 1804.
%%score [ 1 2 3 4 ]
L:1/8
Q:1/4=90
M:2/4
K:A
V:1 treble nm="Tr" snm="Tr"
V:2 treble nm="C" snm="C"
V:3 treble-8 nm="T" snm="T"
V:4 bass nm="B" snm="B"
V:1
"^1. Praise ye the Lord, my heart shall join  In   work  so        plea     –    sant, so     di  –  vine; Now, while the    flesh      is" c2 | %1
 c2 B2 | A3 c | AG FE | F3 A | A2 A2 | (c e2) f | e2 d2 | [ce]3 c | B2 Bc | e/d/c/B/ AG | %11
"^1. mine a  –  bode, And  when  my    soul   a     –     scends to God.       Praise shall employ my  noblest  powers,  While  im-mor–" Ac cd | %12
 [ce]3 e/d/ | cB BA | AB c/>d/c/B/ | A2 B2 | c4 | z2 z c | A2 G2 | A3 B | c/B/A Bc | c3 c/B/ | %22
 A2 A2 | %23
"^1. –tal  –  i    –    ty      en – dures; My   days  of    praise shall ne'er be     past, While life, and thought, and be    –     ing      last." c/d/e ed | %24
 c2 f2 | e3 e | cA A2 | (B e2) [ce] | cA A2 | G3 A | (c e2) e | f3 f | e/d/c/B/ AG | F4 |] %34
V:2
"^2. Why should I make a man my trust? Princes    must      die          and     turn    to    dust; Their breath de–parts,       their" F2 | %1
 F2 E2 | A3 A | AG FE | F3 F | A2 A[FB] | (3cEB AF | G2 AF | E3 F | FA AF | GF E/F/G | %11
"^2. pomp, and power, And thoughts, all va – nish            in  an hour.           Hap–py  the man whose hopes re  –  ly     On     Israel's" AE EC | %12
 E3 E | FG A2 | A2 A/G/F | F2 E2 | F4 | z4 | z4 | z4 | z4 | z4 | z4 | %23
"^2. God;     he       made  the     sky, And earth, and   seas, with  all     their   train, And none shall find  his    pro   –   mise    vain." z4 | %24
 z4 | z4 | z4 | B3 c | ec cA | B3 c | f2 e2 | f2 c/B/A | A2 G2 | F4 |] %34
V:3
"^3. The Lord hath eyes to give the blind; The Lord  sup   –  ports      the      sin  – king mind; He  helps the    stran   –   ger" F2 | %1
 A2 B2 | c3 f | cB AG | F3 F | AB c/d/e | f/a/b gf | e>f ed | c3 c | dB Bd | cA A2 | %11
"^3.  in     dis – tress, The   wi – dow    and    the             fa–ther–less.         He loves his saints, he knows them well, But turns the wicked down to hell: Thy God, O Zion! ever reigns; Praise him in everlasting strains." AF BA | %12
 G3 G | AB Bc | cd c/B/A | A2 G2 | F4 | z2 z c | c2 ed | c3 c | f2 e2 | f3 f | e2 e2 | %23
"^3.  wick – ed     down  to       hell: Thy   God,  O        Zi   –  on! ev  –  er   reigns; Praise him in  ev  –  er   –  las    –   ting    strains." e2 e2 | %24
 e>f ed | c3 c | ec cA | B3 c | ec cA | B3 c | f2 e2 | f2 c/B/A | A2 G2 | F4 |] %34
V:4
 F,2 | F,2 E,2 | F,3 F, | C,2 C,2 | F,3 F, | F,E, F,2 | A,2 G,F, | E,2 F,2 | C,3 F, | B,2 B,2 | %10
 C2 C,2 | C,2 C,2 | C,3 C, | F,E, F,2 | F,2 A,/B,/C | F,2 C,2 | F,4 | z2 z F, | F,2 E,2 | F,3 F, | %20
 B,2 C2 | F,3 F, | A,2 A,2 | A,2 A,2 | %24
"^________________________________________\nEdited by B. C. Johnston, 2016\n   1. \nCounter\n:  Converted all Alto-clef to Treble-Clef;   Measures 1-17 moved down one octave; Measures 28-34 as written.\n   2. Measure 18: All parts: Leading Half-rest changed to Quarter-rest." E,2 F,2 | %25
 C,3 C, | C,2 F,2 | E,3 F, | C,2 F,2 | E,3 F, | F,2 E,2 | F,2 F,2 | [C,B,]2 [C,C]2 | F,4 |] %34

